icons/svg/security-network.svg

﻿<?xml version="1.0" encoding="utf-8"?>
<!DOCTYPE svg PUBLIC "-//W3C//DTD SVG 1.1//EN" "http://www.w3.org/Graphics/SVG/1.1/DTD/svg11.dtd">
<svg xmlns="http://www.w3.org/2000/svg" xmlns:xlink="http://www.w3.org/1999/xlink" version="1.1" baseProfile="full" width="24" height="24" viewBox="0 0 24.00 24.00" enable-background="new 0 0 24.00 24.00" xml:space="preserve">
	<path fill="#000000" fill-opacity="1" stroke-width="0.2" stroke-linejoin="round" d="M 13,18L 14,18C 14.5523,18 15,18.4477 15,19L 22,19L 22,21L 15,21C 15,21.5523 14.5523,22 14,22L 10,22C 9.44772,22 9.00001,21.5523 9.00001,21L 2,21L 2,19L 9.00001,19C 9.00001,18.4477 9.44772,18 10,18L 11,18L 11,16.3397C 8.07359,15.1337 6,12.0002 6,8.66667L 6,4.66667L 12,2L 18,4.66667L 18,8.66667C 18,12.0001 15.9259,15.1336 13,16.3397L 13,18 Z M 12,4.00001L 7.99999,5.69445L 8,9L 12,9L 12,4.00001 Z M 12,9L 12,15C 13.9126,14.5318 16,12.0567 16,10L 16,9L 12,9 Z "/>
</svg>

<svg xmlns="http://www.w3.org/2000/svg" version="1.1" baseProfile="full" width="24" height="24" viewBox="0 0 24.00 24.00" xml:space="preserve"><path fill="#000" fill-opacity="1" stroke-width=".2" stroke-linejoin="round" d="M13 18h1c.552 0 1 .448 1 1h7v2h-7c0 .552-.448 1-1 1h-4c-.552 0-1-.448-1-1H2v-2h7c0-.552.448-1 1-1h1v-1.66C8.074 15.134 6 12 6 8.667v-4L12 2l6 2.667v4c0 3.333-2.074 6.467-5 7.673V18zM12 4L8 5.694V9h4V4zm0 5v6c1.913-.468 4-2.943 4-5V9h-4z"/></svg>
